X: 6
T: Top of Ben Lomond, The
R: Jig
L: 1/8
G: Charlie Hunter
M: 6/8
K: D
a | "D"faf "(Bm)"dfd | "G"BdB "D"A3 | "Bm"def "D"afd | "Em"efd "A7"e2 f |"D"faf "(Bm)"dfd | 
"G"BdB "D"A3 | "Bm"def "A7"afe | "D"ded d2 :||:g | "A"a2A "D"f2A | "Em"BdA "G"B2A | 
"Bm"def "D"afd | "Em"efd "A7"efg |"D"a2A f2 A | "Em"BdA "G"B2A | "Bm"def "A7"afe | "D"ded d2 :|
%%newpage
%%textfont * 14
%%begintext justify
%%32 Bar Jigs
%%endtext
